svg/UnitedNationsOCHA-Humanitarian/disaster_cold_wave_icon_box.svg

<svg xmlns="http://www.w3.org/2000/svg" viewBox="0 0 32 32" enable-background="new 0 0 32 32"><path fill="#407cca" d="m12.692 20.17l-.174-.101v-13.635c0-.959-.778-1.739-1.737-1.739-.961 0-1.742.779-1.742 1.739v13.635l-.172.101c-1.181.687-1.916 1.953-1.916 3.308 0 2.109 1.719 3.824 3.828 3.824 2.111 0 3.83-1.715 3.83-3.824 0-1.355-.735-2.624-1.917-3.308m-1.912 5.742c-1.347 0-2.436-1.093-2.436-2.437 0-.971.572-1.802 1.392-2.193v-5.809h2.089v5.809c.82.393 1.392 1.224 1.392 2.193 0 1.344-1.091 2.437-2.437 2.437m14.82-25.913h-19.2c-3.52 0-6.4 2.88-6.4 6.4v19.2c0 3.517 2.88 6.398 6.4 6.398h19.2c3.521 0 6.4-2.881 6.4-6.398v-19.2c0-3.52-2.88-6.4-6.4-6.4m-14.82 28c-2.494 0-4.523-2.029-4.523-4.521 0-1.533.797-2.973 2.087-3.803v-13.249c.006-1.34 1.095-2.427 2.437-2.427 1.339 0 2.43 1.087 2.436 2.427 0 .003 0 .007 0 .008v13.241c1.289.828 2.086 2.27 2.086 3.803 0 2.492-2.028 4.521-4.523 4.521m14.964-16.354h-9.05v-1.392h9.05v1.392"/></svg>

<?xml version="1.0" encoding="utf-8"?>
<!-- Generator: Adobe Illustrator 16.0.3, SVG Export Plug-In . SVG Version: 6.00 Build 0)  -->
<!DOCTYPE svg PUBLIC "-//W3C//DTD SVG 1.1//EN" "http://www.w3.org/Graphics/SVG/1.1/DTD/svg11.dtd">
<svg version="1.1" id="Layer_1" xmlns="http://www.w3.org/2000/svg" xmlns:xlink="http://www.w3.org/1999/xlink" x="0px" y="0px"
	 width="32px" height="32px" viewBox="0 0 32 32" enable-background="new 0 0 32 32" xml:space="preserve">
<path fill="#407CCA" d="M12.692,20.171l-0.174-0.101V6.435c0-0.959-0.778-1.739-1.737-1.739c-0.961,0-1.742,0.779-1.742,1.739V20.07
	l-0.172,0.101c-1.181,0.687-1.916,1.953-1.916,3.308c0,2.109,1.719,3.824,3.828,3.824c2.111,0,3.83-1.715,3.83-3.824
	C14.609,22.124,13.874,20.855,12.692,20.171z M10.78,25.913c-1.347,0-2.436-1.093-2.436-2.437c0-0.971,0.572-1.802,1.392-2.193
	v-5.809h2.089v5.809c0.82,0.393,1.392,1.224,1.392,2.193C13.217,24.82,12.126,25.913,10.78,25.913z M25.6,0H6.4C2.88,0,0,2.88,0,6.4
	v19.202C0,29.119,2.88,32,6.4,32h19.2c3.521,0,6.4-2.881,6.4-6.398V6.4C32,2.88,29.12,0,25.6,0z M10.78,28
	c-2.494,0-4.523-2.029-4.523-4.521c0-1.533,0.797-2.973,2.087-3.803V6.427C8.35,5.087,9.439,4,10.781,4
	c1.339,0,2.43,1.087,2.436,2.427c0,0.003,0,0.007,0,0.008v13.241c1.289,0.828,2.086,2.27,2.086,3.803
	C15.303,25.971,13.275,28,10.78,28z M25.744,11.646h-9.047v-1.392h9.047V11.646z"/>
</svg>
